assets/icons/informations/schedule.svg

<svg viewBox="0 0 24 24" xmlns="http://www.w3.org/2000/svg">
<path d="M14.625 16.025C14.8083 16.2083 15.0333 16.3 15.3 16.3C15.5667 16.3 15.8 16.2 16 16C16.1833 15.8167 16.275 15.5833 16.275 15.3C16.275 15.0167 16.1833 14.7833 16 14.6L13 11.6V7.975C13 7.69167 12.9043 7.45833 12.713 7.275C12.521 7.09167 12.2833 7 12 7C11.7167 7 11.4793 7.09567 11.288 7.287C11.096 7.479 11 7.71667 11 8V11.975C11 12.1083 11.025 12.2373 11.075 12.362C11.125 12.4873 11.2 12.6 11.3 12.7L14.625 16.025ZM12 22C10.6167 22 9.31667 21.7373 8.1 21.212C6.88333 20.6873 5.825 19.975 4.925 19.075C4.025 18.175 3.31267 17.1167 2.788 15.9C2.26267 14.6833 2 13.3833 2 12C2 10.6167 2.26267 9.31667 2.788 8.1C3.31267 6.88333 4.025 5.825 4.925 4.925C5.825 4.025 6.88333 3.31233 8.1 2.787C9.31667 2.26233 10.6167 2 12 2C13.3833 2 14.6833 2.26233 15.9 2.787C17.1167 3.31233 18.175 4.025 19.075 4.925C19.975 5.825 20.6873 6.88333 21.212 8.1C21.7373 9.31667 22 10.6167 22 12C22 13.3833 21.7373 14.6833 21.212 15.9C20.6873 17.1167 19.975 18.175 19.075 19.075C18.175 19.975 17.1167 20.6873 15.9 21.212C14.6833 21.7373 13.3833 22 12 22Z" fill="inherit"/>
</svg>

<svg viewBox="0 0 24 24" xmlns="http://www.w3.org/2000/svg"><path d="M14.6 16c.2.2.4.3.7.3.3 0 .5-.1.7-.3.2-.2.3-.4.3-.7 0-.3-.1-.5-.3-.7l-3-3V8a1 1 0 0 0-.3-.7A1 1 0 0 0 12 7a1 1 0 0 0-.7.3 1 1 0 0 0-.3.7v4a1 1 0 0 0 .3.7l3.3 3.3ZM12 22a9.7 9.7 0 0 1-7-3A10 10 0 0 1 2.7 8.2 10 10 0 0 1 12 2a9.7 9.7 0 0 1 7 3 10 10 0 0 1 2.2 10.9A10 10 0 0 1 12 22Z" fill="inherit"/></svg>
